icons/arrow-tray-bottom-left.svg

<svg xmlns="http://www.w3.org/2000/svg" width="24" height="24" viewBox="0 0 24 24">
  <path d="M21,14 C21.5522847,14 22,14.4477153 22,15 L22,15 L22,19 L21.9949073,19.1762728 C21.9036609,20.75108 20.5976809,22 19,22 L19,22 L5,22 L4.82372721,21.9949073 C3.24891996,21.9036609 2,20.5976809 2,19 L2,19 L2,15 L2.00672773,14.8833789 C2.06449284,14.3860402 2.48716416,14 3,14 C3.55228475,14 4,14.4477153 4,15 L4,15 L4,19 L4.00672773,19.1166211 C4.06449284,19.6139598 4.48716416,20 5,20 L5,20 L19,20 L19.1166211,19.9932723 C19.6139598,19.9355072 20,19.5128358 20,19 L20,19 L20,15 L20.0067277,14.8833789 C20.0644928,14.3860402 20.4871642,14 21,14 Z M18.7071068,3.29289322 C19.0675907,3.65337718 19.0953203,4.22060824 18.7902954,4.61289944 L18.7071068,4.70710678 L11.414,12 L15,12 L15.1166211,12.0067277 C15.6139598,12.0644928 16,12.4871642 16,13 C16,13.5128358 15.6139598,13.9355072 15.1166211,13.9932723 L15,14 L9,14 L8.966,13.998 L8.94096861,13.9982669 L8.919,13.995 L8.88337887,13.9932723 C8.8708523,13.9918173 8.85839634,13.9901309 8.84601538,13.9882174 L8.83497666,13.9863787 L8.83497666,13.9863787 L8.80118228,13.9802356 L8.76490121,13.9722083 L8.76490121,13.9722083 L8.68785748,13.9502619 L8.68785748,13.9502619 C8.66820232,13.9438775 8.6484208,13.9366843 8.62894148,13.928896 L8.57677845,13.9063266 L8.57677845,13.9063266 C8.5561086,13.8966234 8.53570605,13.8862061 8.51572305,13.8751242 C8.50360556,13.8685012 8.49138689,13.8613931 8.47929125,13.8540045 C8.45372505,13.8382813 8.42886931,13.8215099 8.4048407,13.8036865 L8.34745237,13.7577946 L8.34745237,13.7577946 L8.38519363,13.7887351 C8.32033919,13.7381101 8.2618899,13.6796608 8.21126487,13.6148064 C8.20622849,13.6084584 8.20123565,13.6019058 8.19633458,13.5953066 C8.17849009,13.5711307 8.1617187,13.546275 8.14606743,13.5206602 L8.12467117,13.4840621 L8.12467117,13.4840621 C8.11379392,13.4642939 8.10337664,13.4438914 8.09365378,13.4230991 L8.07122549,13.371336 L8.07122549,13.371336 C8.06331574,13.3515792 8.05612249,13.3317977 8.04954668,13.3117364 C8.04472872,13.2968513 8.04009773,13.2814633 8.03584514,13.265993 C8.02983363,13.2444365 8.0246398,13.2227461 8.02016515,13.2007941 C8.01670217,13.1833753 8.01362808,13.165949 8.0110178,13.1484669 L8.003,13.081 L8.001,13.019 L8.001,13.054 L8.00018615,13.0193545 L8.00018615,13.0193545 L8,7 L8.00672773,6.88337887 C8.06449284,6.38604019 8.48716416,6 9,6 C9.51283584,6 9.93550716,6.38604019 9.99327227,6.88337887 L10,7 L10,10.584 L17.2928932,3.29289322 L17.3871006,3.20970461 C17.7793918,2.90467972 18.3466228,2.93240926 18.7071068,3.29289322 Z"/>
</svg>

<svg xmlns="http://www.w3.org/2000/svg" viewBox="0 0 24 24">
  <path d="M21 14a1 1 0 0 1 1 1v4.18A3 3 0 0 1 19 22H4.82A3 3 0 0 1 2 19v-4.12A1 1 0 0 1 4 15v4.12A1 1 0 0 0 5 20h14.12a1 1 0 0 0 .88-1v-4.12a1 1 0 0 1 1-.88zM18.7 3.3a1 1 0 0 1 .09 1.31l-.08.1L11.4 12h3.71a1 1 0 0 1 0 2H8.88a1 1 0 0 1-.03-.01h-.02l-.03-.01h-.04l-.07-.03a.95.95 0 0 1-.06-.02l-.05-.02a1.02 1.02 0 0 1-.18-.1l-.05-.05.04.03a1 1 0 0 1-.24-.27l-.03-.04a1.04 1.04 0 0 1-.03-.06l-.02-.05a.99.99 0 0 1-.06-.22v-.13.03L8 13.02V6.88a1 1 0 0 1 2 0v3.7l7.3-7.29.09-.08a1 1 0 0 1 1.32.08z"/>
</svg>
